X:1
T:Title
%%score { ( 1 3 ) | 2 }
L:1/8
M:4/4
K:F
V:1 treble nm="Grand Piano"
V:3 treble 
V:2 bass 
V:1
 z4 z2[Q:1/4=100] FG | A2 B2 z4 | FE z E F2 FG | A2 c2 c2 AA | %4
[M:9/8] A2 [=B,DG]- [B,DG] [CEG]2- [CEG]FG |[M:4/4] A2 B2 z4 | FE z E F2 dd | %7
 c2 A2 [=B,FA]2 [B,F][B,FG] |[M:7/8] [CFA]2 [B,EG]2 F3 |[M:1/4] cc |[M:4/4] [Ec]2 G2 G2 [EB][GB] | %11
 A2 B2 c2 cc | d2 c2 B2 AA |[M:9/8] G2 =B- B [Ec]2- [Ec][E_B][GB] |[M:4/4] A2 G2 F2 FF | %15
 FE z E F2 dd | c2 A2 [=B,FA]2 [B,F][B,G] |[M:7/8] [CFA]2 [B,EG]2 [F,A,F]3 |] %18
V:2
 z4 z2 [F,A,][F,B,F] | .[F,CF]2 .[F,D]2 [F,CF]2 [F,CF][F,B,F] | %2
 [F,A,C]2 [F,B,]2 [F,A,C]2 [F,A,][K:treble][F,B,F] | [F,CF]2 [F,A,F]2 [F,A,F]2 [F,CF][F,CF] | %4
[M:9/8] [G,=B,F]2[K:bass] G,,- G,, C,2- C,[F,A,][F,_B,F] | %5
[M:4/4] .[F,CF]2 .[F,D]2 [F,CF]2 [F,CF][F,B,F] | [F,A,C]2 [F,B,]2 [F,A,C]2 [F,B,F][F,B,F] | %7
 [F,A,F]2 [F,CF]2 D,2 D,D, |[M:7/8] C,2 C,2 [F,A,]3 |[M:1/4] [F,A,F][F,A,F] | %10
[M:4/4] [C,G,]2 E2 E2 [C,C][C,C] | [F,CF]2 [G,CE]2 [A,CF]2 [A,CA][A,CA] | %12
 [A,DB]2 [A,CA]2 [G,B,G]2[K:bass] [F,A,F][F,A,F] | %13
[M:9/8] [E,G,E]2 [D,G,D]- [D,G,D] [C,G,]2- [C,G,][C,C][C,C] | %14
[M:4/4] [F,CF]2 [F,B,F]2 [F,A,]2 [F,A,C][F,A,C] | [F,A,C]2 [F,B,]2 [F,A,C]2 [F,B,F][F,B,F] | %16
 [F,A,F]2 [F,CF]2 D,2 D,D, |[M:7/8] C,2 C,2 F,,3 |] %18
V:3
 x8 | z E z E A2 AG | z2 D2 z4 | x8 |[M:9/8] x9 |[M:4/4] z E z E A2 AG | z2 D2 z4 | x8 | %8
[M:7/8] x7 |[M:1/4] x2 |[M:4/4] x8 | x8 | x8 |[M:9/8] x9 |[M:4/4] x8 | z2 D2 z4 | x8 |[M:7/8] x7 |] %18

